X:1
T:Almost
T:Almost
T:John Robson Sweney
T:Amy Catherine Deck Walton,1885
T:Public Domain Courtesy of the Cyber Hymnal™
C:John Robson Sweney
Z:Public Domain
Z:Courtesy of the Cyber Hymnal™
%%score ( 1 2 ) ( 3 4 )
L:1/8
Q:1/4=105
M:6/8
K:F
V:1 treble 
V:2 treble 
V:3 bass 
V:4 bass 
V:1
 [CF]3 [Fc]2 [FB] | [FA]4 [CG][CF] | [EG]3 [EA]2 [EA] | [CF]3- [CF]2 [CF] | [DF]3 [FB]2 [Fd] | %5
w: 1.~So near the|door, and the|door sto- od|wi- * de?|Close to the|
w: 2.~Lord, help me|trust in Thy|Word t- o-|day, * That|Thou art the|
w: 3.~Sav- ior, I|come, I ~|cry un- to|Thee, * O|let not these|
 [Fc]3- [Fc]2 [FA] | [EG]3 [=B,D]3 | [CE]3- [CE]2 z | [GB]3 [EG]2 [Ed] | [Fc]3- [Fc]2 [CA]/[CA]/ | %10
w: port, * but|not in-|side! *|Near to the|fold, * ye- t|
w: light, * the|truth, the|way. *|Now as I|come, * with my|
w: words * be|true of|me, *|I want to|come * to the|
 [^CA]3 [CG]3 | [DF]3- [DF]2 [DF] | [DF]3 [CE]2 [B,D] | [A,C]3- [A,C]2 F | [EG]3 [FA]2 [FA] | %15
w: not with-|i- * n,|Al- most re-|solved * to|give u- p|
w: load of|sin, * The|door be- ing|open, * O|help me step|
w: point to-|day, * O|suf- fer me|no- * t|to turn a-|
 [EG]3- [EG]2 z | [FA]3 [EB]2 [Fc] | [Fd]3 [Fc]2 [Fc] | [Ec]3- [Ec]2 [GB] | [FA]3- [FA]2 [FA] | %20
w: sin! *|Al- most per-|suad- ed to|count * the|cost, * ~|
w: in. *|How sad the|thought that for|me, * at|last, * The|
w: way; *|Give me no|rest, till my|soul * shall|be * ~|
 [DG]3 [DB]2 [DG] | [CF]3 [Fc]3 | C3 [=B,D]2 [_B,E] | [A,F]3- [A,F]2 z |] %24
w: Al- most a|Christ- ian,|an- d yet|lost? *|
w: door would be|shut, and|me- r- cy|past! *|
w: With- in the|ref- uge,|sa- fe with|Thee. *|
V:2
 x6 | x6 | x6 | x6 | x6 | x6 | x6 | x6 | x6 | x6 | x6 | x6 | x6 | x5 F | x6 | x6 | x6 | x6 | x6 | %19
 x6 | x6 | x6 | C3 x3 | x6 |] %24
V:3
 [F,A,]3 [F,A,]2 [F,D] | [F,C]4 [F,B,][F,A,] | [C,B,]3 [C,C]3 | [F,A,]3- [F,A,]2 [F,A,] | %4
 B,3 [B,,D]2 [B,,B,] | [F,A,]3- [F,A,]2 [F,C] | [G,C]3 [G,,G,]3 | [C,G,]3- [C,G,]2 z | %8
 [C,C]3 [C,C]2 [C,B,] | [F,A,]3- [F,A,]2 F,/F,/ | [A,,E,]3 [A,,A,]3 | [D,A,]3- [D,A,]2 [D,A,] | %12
 [B,,B,]3 [B,,B,]2 [B,,F,] | [F,,F,]3- [F,,F,]2 [F,A,] | [C,C]3 [C,C]2 [C,C] | [C,C]3- [C,C]2 z | %16
 [F,C]3 [G,C]2 [A,C] | B,3 [A,C]2 [F,A,] | [C,G,]3- [C,G,]2 [C,C] | [F,C]3- [F,C]2 [F,C] | %20
 [B,,B,]3 [B,,G,]2 [B,,B,] | [F,A,]3 [F,A,]3 | [C,-E,]3 [C,F,]2 [C,G,] | [F,,F,]3- [F,,F,]2 z |] %24
V:4
 x6 | x6 | x6 | x6 | B,3 x3 | x6 | x6 | x6 | x6 | x5 F,/F,/ | x6 | x6 | x6 | x6 | x6 | x6 | x6 | %17
 B,3 x3 | x6 | x6 | x6 | x6 | x6 | x6 |] %24

